!!!!SEGMENT: pl-sa--207-a-vi-11--002_pych-leopold--passio-domini-nostri-2.krn
!!!cenid: 17xx:374
!!!COM: Pych, Leopold
!!!COM-rismid: pe30018039
!!!CDT: <1758->1774
!!!CNT:
!!!OTL: Passio Domini nostri – 2
!!!PDT: 1778
!!!AGN: Sacred
!!!SMS-siglum: PL-SA
!!!SMS-shelfmark: 207/A VI 11
!!!SMS-shelfwork: 001-002 M
!!!NIFC-rismid: 1001077266
!!!URL-scan: http://bc.bdsandomierz.pl/dlibra/publication/1563/edition/1531/content
!!!ONB-nifc: UWAGA: części: Pars 1ma, Pars 2da, Pars 3tia
**kern	**fb	**dynam	**kern	**dynam	**kern	**dynam	**kern	**text	**kern	**dynam	**kern	**dynam	**kern	**dynam
*part7	*	*part7	*part6	*part6	*part5	*part5	*part4	*part4	*part3	*part3	*part2	*part2	*part1	*part1
*staff7	*	*	*staff6	*	*staff5	*	*staff4	*staff4	*staff3	*	*staff2	*	*staff1	*
*I"Fundamento	*	*	*I"Violino Secundo	*	*I"Violino Primo	*	*I"Baſso	*	*I"Cornu 2do. in F:	*	*I"Cornu 1mo in F.	*	*I"Oboe Solo	*
*I'b.c.	*	*	*I'Vln. II	*	*I'vn 1	*	*I'B	*	*I'cor 2	*	*I'cor 1	*	*I'ob	*
*clefF4	*	*	*clefG2	*	*clefG2	*	*clefF4	*	*clefG2	*	*clefG2	*	*clefG2	*
*	*	*	*	*	*	*	*	*	*ITrd4c7	*	*ITrd4c7	*	*	*
*k[b-]	*	*	*k[b-]	*	*k[b-]	*	*k[b-]	*	*k[b-]	*	*k[b-]	*	*k[b-]	*
*F:	*	*	*F:	*	*F:	*	*F:	*	*	*	*	*	*F:	*
*M4/4	*	*	*M4/4	*	*M4/4	*	*M4/4	*	*M4/4	*	*M4/4	*	*M4/4	*
*met(c)	*	*	*met(c)	*	*met(c)	*	*met(c)	*	*met(c)	*	*met(c)	*	*met(c)	*
=1	=1	=1	=1	=1	=1	=1	=1	=1	=1	=1	=1	=1	=1	=1
*2\right	*above	*	*2\right	*	*2\right	*	*2\right	*	*2\right	*	*2\right	*	*2\right	*
!	!	!	!LO:TX:a:t=Pars 2dã	!	!LO:TX:a:t=Tardiſsime	!	!	!	!	!	!	!	!	!
!LO:TX:a:t=Tardiſſime	!	!	!	!	!LO:TX:a:t=Pars 2da	!	!	!	!	!	!	!	!LO:TX:a:t=Tardiſſime	!
!LO:TX:a:t=Pars 2da	!	!	!LO:TX:a:t=Tardiſſime	!	!	!	!LO:TX:a:t=Pars 2da.	!	!	!	!	!	!LO:TX:a:t=Pars 2da	!
!	!	!	!	!	!	!	!	!	!LO:TX:a:t=Pars 2da	!	!	!	!	!
8F\L	.	.	8a/	.	8cc\	.	8F\	Ap-	8f\	.	(>8a\	.	8cc\	.
!	!	!	!	!	!	!	!	!	!	!	!LO:TX:a:t=Pars 2da.	!	!	!
!	!	!	!	!	!	!	!	!	!	!	!LO:N:vis=8	!	!	!
8F\	.	.	4a/	.	4cc\	.	8F\	-pre-	4f\	.	4a\	.	4cc\	.
8A\	.	.	.	.	.	.	8A\	-hen-	.	.	.	.	.	.
8F\J	.	.	8a/	.	8ff\	.	8F\	-dit	8f\	.	8a\)	.	8ff\	.
.	.	.	.	.	.	f	.	.	.	.	8qqa/	.	.	.
4c\	.	.	8g/	.	8ee\	.	4c\	er-	8c/	.	8g\	.	8ee\	.
.	.	.	4ee\	.	4gg\	.	.	.	4c/	.	4g\	.	4gg\	.
8c\L	.	.	.	.	.	.	8c\	-go	.	.	.	.	.	.
8c\J	.	.	16ff\LL	.	16aa\LL	.	8c\	Pi-	16f\LL	.	16a\LL	.	16aa\LL	.
.	.	.	16gg\JJ	.	16bb-\JJ	.	.	.	16g\JJ	.	16b-\JJ	.	16bb-\JJ	.
=2	=2	=2	=2	=2	=2	=2	=2	=2	=2	=2	=2	=2	=2	=2
!LO:TX:a:t=P:problem:mixed beam	!	!	!	!	!	!	!	!	!	!	!	!	!	!
8A\L	.	.	8cc\L	.	8aa\L	.	8A\	-la-	8f\L	.	8a\L	.	8aa\L	.
8F\	.	.	8a\J	.	8cc\J	.	8A\	-tus	8a\J	.	8cc\J	.	8cc\J	.
.	.	.	8qqa/	.	8qqcc/	.	.	.	8qqa/	.	8qqcc/	.	.	.
8G\	.	.	4g/	.	4b-T\	.	4G\	Je-	4gT\	.	4b-T\	.	4b-\	.
8C/J	.	.	.	.	.	.	.	.	.	.	.	.	.	.
4F\	.	.	16f/LL	.	(>16a\LL	.	4F\	-sum	4f\	.	4a\	.	(>16a\LL	.
.	.	.	(<16a/	.	16cc\)	.	.	.	.	.	.	.	16cc\	.
.	.	.	(<16a/)	.	16cc\	.	.	.	.	.	.	.	16cc\	.
.	.	.	16cc/JJ)	.	16ff\JJ	.	.	.	.	.	.	.	16ff\JJ)	.
8r	.	.	(>16cc\LL	.	(>16ff\LL	.	8r	.	4r	.	4r	.	(>16ff\LL	.
.	.	.	16ff\)	.	16aa\)	.	.	.	.	.	.	.	16aa\)	.
8F\	.	.	(>16ff\	.	(>16aa\	.	8A\	et	.	.	.	.	(>16aa\	.
.	.	.	16a\JJ)	.	16cc\JJ)	.	.	.	.	.	.	.	16cc\JJ)	.
=3	=3	=3	=3	=3	=3	=3	=3	=3	=3	=3	=3	=3	=3	=3
4E\	X 7-	.	8.g/L	.	8.dd-X\L	.	8.B-\	fla-	2r	.	2r	.	8.dd-X\L	.
.	.	.	16g/Jk	.	16dd-\Jk	.	16B-\	-gel-	.	.	.	.	16dd-\Jk	.
8F\L	X -	.	8a-X/L	.	8cc\L	.	8A-X\	-la-	.	.	.	.	8cc\L	.
8B-\J	.	.	8d/J	.	16b-\L	.	16G\LL	-vit	.	.	.	.	16b-\L	.
.	.	.	.	.	16a-X\JJ	.	16F\JJ	.	.	.	.	.	16a-X\JJ	.
.	.	.	.	.	8qqb-/	.	8qF/	.	.	.	.	.	8qqa-	.
!LO:TX:a:t=P:problem:mixed beam	!	!	!	!	!	!	!	!	!	!	!	!	!	!
8c\L	.	.	8fn/L	.	8a-/L	.	8En\	e-	8r	.	8r	.	8aa\L	.
8C/	.	.	8e/	.	8g/	.	8E\	-um	8c/L	.	8g\L	.	8gg\	.
8C/	.	.	8e/	.	8g/	.	8r	.	8c/	.	8g\	.	8gg\	.
8c\J	.	.	8e/J	.	8g/J	.	8c\	&	8c/J	.	8g\J	.	8gg\J	.
!	!	!	!	!	!	!	!LO:LB:g=original	!	!	!	!	!	!	!
=4	=4	=4	=4	=4	=4	=4	=4	=4	=4	=4	=4	=4	=4	=4
8.c\L	.	.	4e/	.	4g/	.	8.c\	mi-	8c/	.	8g\	.	4gg\	.
.	.	.	.	.	.	.	.	.	4c/	.	4g\	.	.	.
16B-X\	.	.	.	.	.	.	16c\	-li-	.	.	.	.	.	.
8B-\	.	.	8r	.	8r	.	8c\	-tes	.	.	.	.	8r	.
8B-\J	.	.	8g/	.	8ff\	.	8B-\	plec-	8g\	.	8b-\	.	8ff\	.
!	!	!	!	!	!LO:LB:g=original	!	!	!	!	!	!	!	!	!
!	!	!	!LO:LB:g=original	!	!LO:TX:a:t=P:problem:mixed beam	!	!	!	!	!	!	!	!	!
.	.	.	.	.	.	.	.	.	8qqg/	.	.	.	.	.
8A\L	.	.	8a/L	.	8ff\L	.	8A\	-ten-	4f\	.	4a\	.	8ff\L	.
8A\	.	.	8a/	.	8f/	.	16A\	-teſ	.	.	.	.	8aa\	.
.	.	.	.	.	.	.	16A\	co-	.	.	.	.	.	.
8F\	.	.	8a/	.	8f/	.	8F\	-ro-	4r	.	4r	.	8aa\	.
8B-\J	.	.	8b-/J	.	8f/J	.	8B-\	-nam	.	.	.	.	8aa\J	.
!LO:LB:g=original	!	!	!	!	!	!	!	!	!	!	!	!	!LO:LB:g=original	!
=5	=5	=5	=5	=5	=5	=5	=5	=5	=5	=5	=5	=5	=5	=5
!	!	!	!	!	!LO:TX:a:t=P:problem:mixed beam	!	!	!	!	!	!	!	!LO:TX:a:t=P:problem:mixed beam	!
8A\L	.	.	8cc\L|	.	8f/L	.	16A\	spi-	4f\	.	4f\	.	8f/L	.
.	.	.	.	.	.	.	16A\	-ne-	.	.	.	.	.	.
8B-\J	.	.	(>8dd\	.	(>8ff\	.	8B-\	-am	.	.	.	.	8ff\	.
8r	.	.	8cc\)	.	8ee-X\)	.	8r	.	4r	.	4r	.	8ee-X\	.
8D/	.	.	8b-\J	.	8dd\J	.	8D\	im-	.	.	.	.	8dd\J	.
8E-X\L	.	.	8g/L	.	8b-\L	.	8E-X\	-po-	2r	.	2r	.	8b-\L	.
8E-\J	.	.	8g/	.	8b-\J	.	8E-\	-su-	.	.	.	.	8b-\J	.
8E-\L	.	.	8g/	.	8ee-X\L	.	8E-\	-e-	.	.	.	.	8ee-X\L	.
16D\L	.	.	8g/J	.	16ff\L	.	16D/LL	-runt	.	.	.	.	16ff\L	.
16C\JJ	.	.	.	.	16gg\JJ	.	16C/JJ	.	.	.	.	.	16gg\JJ	.
=6	=6	=6	=6	=6	=6	=6	=6	=6	=6	=6	=6	=6	=6	=6
8F\L	.	.	8a/L	.	8cc\L	.	8F\	ca-	4r	.	4r	.	8cc\L	.
16D\L	.	.	16f/L	.	16dd\L	.	16D\	-pi-	.	.	.	.	16dd\L	.
16E-X\JJ	.	.	16g/JJ	.	16ee-X\JJ	.	16E-X\	-ti	.	.	.	.	16ee-X\JJ	.
!LO:TX:a:t=P:problem:mixed beam	!	!	!	!	!	!	!	!	!	!	!	!	!LO:TX:a:t=t	!
.	.	.	.	.	8qqdd/	.	.	.	.	.	.	.	8qqdd/	.
8F\L	.	.	4at/	.	4ccT\	.	4F\	e-	8F/L	.	8F/L	.	4cc\	.
8FF/J	.	.	.	.	.	.	.	.	16F/L	.	16F/L	.	.	.
.	.	.	.	.	.	.	.	.	16F/JJ	.	16F/JJ	.	.	.
4BB-/	.	.	8b-\L	.	8b-\L	.	4BB-/	-jus	4F/	.	4F/	.	8b-\L	.
.	.	.	(>8dd\	.	(>8ff\	.	.	.	.	.	.	.	8ff\	.
8r	.	.	8cc\)	.	8ee-X\)	.	8r	.	4r	.	4r	.	8ee-X\	.
8B-\	.	.	8b-\J	.	8dd\J	.	8B-\	et	.	.	.	.	8dd\J	.
!	!	!	!	!	!	!	!LO:LB:g=original	!	!LO:LB:g=original	!	!LO:LB:g=original	!	!	!
=7	=7	=7	=7	=7	=7	=7	=7	=7	=7	=7	=7	=7	=7	=7
4F\	.	.	8a/	.	8cc\	.	4A\	ve-	8r	.	8r	.	8cc\	.
.	.	.	4cc\	.	4ee-X\	.	.	.	8F/L	.	8F/	.	4ee-X\	.
8A\L	.	.	.	.	.	.	8A\	-ste	8F/	.	8F/L	.	.	.
8B-\J	6 5-	.	8b-\	.	8dd\	.	8B-\	pur-	8F/J	.	8F/	.	8dd\	.
8.F\L	.	.	16a/LL	.	(>16cc'\LL	.	8.A\	-pu-	4F/	.	8F/	.	(>16cc'\LL	.
.	.	.	(<16f/	.	16a'\	.	.	.	.	.	.	.	16a'\	.
.	.	.	16g'/	.	16b-'\	.	.	.	.	.	8F/J	.	16b-'\	.
16F\Jk	.	.	16a'/JJ	.	16cc'\JJ)	.	16A\	-re-	.	.	.	.	16cc'\JJ)	.
8F\	.	.	16b-'/LL	.	16dd'\LL	.	8A\	-a	4r	.	4r	.	16dd\LL	.
.	.	.	16cc'/	.	16een'\	.	.	.	.	.	.	.	16een\	.
8r	.	.	16dd'/	.	16ff'\	.	8r	.	.	.	.	.	16ff\	.
.	.	.	16een'/JJ)	.	16gg'\JJ	.	.	.	.	.	.	.	16gg\JJ	.
=8	=8	=8	=8	=8	=8	=8	=8	=8	=8	=8	=8	=8	=8	=8
!	!	!	!LO:LB:g=original	!	!LO:TX:a:t=P:problem:mixed beam	!	!	!	!	!	!	!	!LO:TX:a:t=P:problem:mixed beam	!
8F\L	.	.	8ff\L	.	8aa\L	.	8A\	cir-	8r	.	8r	.	8aa\L	.
8F\J	.	.	8a/J	.	8a/J	.	16A\	-cum-	8a\	.	8cc\	.	8a/J	.
.	.	.	.	.	.	.	16A\	-de-	.	.	.	.	.	.
!	!	!	!	!	!LO:LB:g=original	!	!	!	!	!	!	!	!	!
.	.	.	.	.	16qqcc/	.	.	.	16qqa/	.	16qqcc/	.	.	.
!	!	!	!	!LO:DY:a	!	!	!	!	!	!	!	!	!	!
8BB-/L	.	.	8g/L	f	8b-/L	.	8G\	-de-	8g\L	.	8b-\L	.	8bb-\L	.
8C/J	.	.	16f/L	.	16a/L	.	16F\LL	-runt	16f\L	.	16a\L	.	16aa\L	.
.	.	.	16e/JJ	.	16g/JJ	.	16E\JJ	.	16e\JJ	.	16g\JJ	.	16gg\JJ	.
!	!	!	!LO:LB:g=original	!	!	!	!	!	!	!	!	!	!	!
8C/L	4 2	.	4fT/	.	4at/	.	4FT\	e-	4fT\	.	4at\	.	4aat\	.
8BBn/J	.	.	.	.	.	.	.	.	.	.	.	.	.	.
!	!	!	!LO:LB:g=original	!	!LO:TX:a:t=P:problem:mixed beam	!	!	!	!	!	!	!	!LO:TX:a:t=P:problem:mixed beam	!
4C/	.	.	8e/L	.	8g/L	.	4E\	-um	4c/	.	4g\	.	8g/L	.
.	.	.	8ee\J	.	8gg\J	.	.	.	.	.	.	.	8gg\J	.
!LO:LB:g=original	!	!	!	!	!	!	!	!	!	!	!	!	!	!
=9	=9	=9	=9	=9	=9	=9	=9	=9	=9	=9	=9	=9	=9	=9
2r	.	.	8ee\L	.	(>8gg\L	.	2r	.	4r	.	4r	.	(>8gg\L	.
.	.	.	8ff\	.	8aa\)	.	.	.	.	.	.	.	8aa\)	.
.	.	.	8cc\	.	(>8ee\	.	.	.	8r	.	8r	.	(>8ee\	.
.	.	.	8dd\J	.	8ff\J)	.	.	.	8f\	.	8a\	.	8ff\J)	.
!	!	!	!	!	!	!	!	!	!LO:TX:a:t=P:problem:mixed beam	!	!	!	!	!
4c\	5 3	.	8ee\L|	.	8gg\L|	.	4c\	Ait	8c/L	.	8g\L	.	8gg\L|	.
.	.	.	(<16qqff/LL	.	.	.	.	.	.	.	.	.	.	.
.	.	.	16qqgg/JJ)	.	.	.	.	.	.	.	.	.	.	.
.	.	.	(>8aa\	.	(>8ccc\	.	.	.	8a\	.	8cc\	.	(>8ccc\	.
8c\L	8 6	.	8gg\)	.	8bb-\)	.	8c\	Pi-	8g\	.	8b-\	.	8bb-\	.
8c\J	.	.	8ff\J	.	8aa\J	.	8c\	.	8f\J	.	8a\J	.	8aa\J)	.
!	!	!	!	!	!	!	!	!	!	!	!	!	!LO:LB:g=original	!
=10	=10	=10	=10	=10	=10	=10	=10	=10	=10	=10	=10	=10	=10	=10
4c\	.	.	4ee\	.	4gg\	.	4c\	-la-	4c/	.	4g\	.	4gg\	.
!	!	!	!	!	!LO:TX:a:t=P:problem:mixed beam	!	!	!	!	!	!	!	!	!
4A\	.	.	8cc\L	.	8aa\L	.	8A\	-tus	8r	.	8r	.	8aa\L	.
.	.	.	8cc\J	.	16a/L	.	8A\	Ju-	8f\	.	8a\	.	16aa\L	.
.	.	.	.	.	16ff/JJ	.	.	.	.	.	.	.	16ff\JJ	.
4.G\	.	.	4.cc\	.	4.ee\	.	4G\	-dae-	4c/	.	4g\	.	4.ee\	.
.	.	.	.	.	.	.	8G\	-i	4r	.	4r	.	.	.
8G\	.	.	8cc\	.	8ee\	.	8G\	et	.	.	.	.	8ee\	.
!	!	!	!	!	!	!	!LO:LB:g=original	!	!	!	!	!	!	!
=11	=11	=11	=11	=11	=11	=11	=11	=11	=11	=11	=11	=11	=11	=11
!	!	!LO:DY:a	!	!	!	!	!	!	!	!	!	!	!	!
8F\L	.	f	8a/L	.	8cc\L	.	8F\	di-	8r	.	8r	.	8ccc\L	.
8F\J	.	.	8a/J	.	8cc\J	.	8F\	-cens	8a\	.	8cc\	.	8ccc\J	.
.	.	.	16qqb-/	.	8qqee/	.	.	.	.	.	.	.	.	.
4r	.	.	8a/L	.	8cc\L	.	4r	.	8a\L	.	8cc\L	.	8ccc\L	.
.	.	.	16g/L	.	16b-\L	.	.	.	16g\L	.	16b-\L	.	16bb-\L	.
.	.	.	16f/JJ	.	16a\JJ	.	.	.	16f\JJ	.	16a\JJ	.	16aa\JJ	.
4B-\	.	.	4f/	.	4dd\	.	4B-\	Ec-	4f\	.	4f\	.	4dd\	.
8B-\L	.	.	4r	.	4r	.	8B-\	-ce	4r	.	4r	.	4r	.
8B-\J	.	.	.	.	.	.	8B-\	Rex	.	.	.	.	.	.
=12	=12	=12	=12	=12	=12	=12	=12	=12	=12	=12	=12	=12	=12	=12
8A\L	.	.	8r	.	8r	.	8A\	veſ-	8r	.	8r	.	8r	.
8A\J	.	.	8a/L	.	8cc\L	.	8A\	-ter	8f\L	.	8a\L	.	8ccc\L	.
8r	.	.	8f/	.	8a\	.	8r	.	8f\	.	8a\	.	8aa\	.
8A\	.	.	8c/J	.	8f\J	.	8A\	at	8f\J	.	8a\J	.	8ff\J	.
!	!	!	!	!	!	!	!	!	!LO:TX:a:t=P:problem:mixed beam	!	!	!	!	!
8A\L	.	.	4c/	.	4ff\	.	8A\	il-	4f\	.	4a\	.	4ff\	.
8G\J	.	.	.	.	.	.	8G\	-li	.	.	.	.	.	.
8F\L	.	.	8r	.	8r	.	8F\	ma-	4r	.	4r	.	8r	.
16G\L	.	.	16b-\LL	.	8ff\	.	16G\	-gis	.	.	.	.	8ff\	.
16A\JJ	.	.	16cc\JJ	.	.	.	16A\	cla-	.	.	.	.	.	.
!	!	!	!LO:LB:g=original	!	!LO:LB:g=original	!	!	!	!	!	!	!	!	!
=13	=13	=13	=13	=13	=13	=13	=13	=13	=13	=13	=13	=13	=13	=13
4B-\	.	.	8dd\L	.	8ff\L	.	4B-\	-ma-	2r	.	2r	.	8ff\L	.
.	.	.	16cc\L	.	16ee\L	.	.	.	.	.	.	.	16ee\L	.
.	.	.	16dd\JJ	.	16ff\JJ	.	.	.	.	.	.	.	16ff\JJ	.
8B-\L	.	.	16b-\KL	.	8dd\L	.	8B-\	-bant	.	.	.	.	8dd\L	.
.	.	.	8gg\	.	.	.	.	.	.	.	.	.	.	.
8G\J	.	.	.	.	16bb-\L	.	8G\	di-	.	.	.	.	16bb-\L	.
.	.	.	16ff\Jk	.	16aa\JJ	.	.	.	.	.	.	.	16aa\JJ	.
.	.	.	16qqff/	.	.	.	.	.	.	.	.	.	.	.
!	!	!	!	!	!	!	!	!	!	!	!LO:LB:g=original	!	!	!
8c\L	.	.	8ee\L	.	(>8gg\L	.	8c\	-cen-	8r	.	8r	.	8gg\L	.
8c\J	.	.	8ee\J	.	8gg\J)	.	8c\	-teſ	8c/	.	8g\	.	8gg\J	.
!	!	!	!	!	!	!	!	!	!LO:TX:a:t=P:problem:mixed beam	!	!	!	!	!
4r	.	.	(>16ee\LL	.	(>16gg\LL	.	4r	.	8c/L	.	(>8g\L	.	16gg\LL	.
!	!	!	!	!	!LO:TX:a:t=e	!	!	!	!	!	!	!	!	!
.	.	.	16cc\)	.	16ff\)	.	.	.	.	.	.	.	16ee\	.
.	.	.	(>16ff\	.	(>16aa\	.	.	.	8f\J	.	8a\J)	.	16aa\	.
.	.	.	16dd\JJ)	.	16ff\JJ)	.	.	.	.	.	.	.	16ff\JJ	.
!LO:LB:g=original	!	!	!	!	!	!	!	!	!	!	!	!	!	!
=14	=14	=14	=14	=14	=14	=14	=14	=14	=14	=14	=14	=14	=14	=14
!	!	!	!LO:TX:a:t=P:problem:mixed beam	!	!LO:TX:a:t=P:problem:mixed beam	!	!	!	!	!	!	!	!	!
.	.	.	.	.	.	.	.	.	.	.	8qqa/	.	.	.
8c\L	.	.	8ee\L	.	8gg\L	.	8c\	Re-	4c/	.	4g\	.	8gg\L	.
8c\	.	.	8c/J	.	8c/J	.	8c\	-gem	.	.	.	.	8ccc\J	.
8c\	.	.	4r	.	4r	.	8c\	no(n)	4r	.	4r	.	4r	.
8c\J	.	.	.	.	.	.	8c\	ha-	.	.	.	.	.	.
8c\L	.	.	8r	.	8r	.	8r	.	2r	.	2r	.	8r	.
8c\J	.	.	8ee\L	.	8gg\L	.	16c\	-be-	.	.	.	.	8gg\L	.
.	.	.	.	.	.	.	16c\	-mu(s)	.	.	.	.	.	.
!	!	!	!	!	!	!	!LO:LB:g=original	!	!	!	!	!	!	!
8r	.	.	8ee\	.	8gg\	.	8r	.	.	.	.	.	8gg\	.
8c\	.	.	8ee\J	.	8gg\J	.	16c\	ni-	.	.	.	.	8gg\J	.
.	.	.	.	.	.	.	16c\	-si	.	.	.	.	.	.
!	!	!	!	!	!	!	!	!	!	!	!	!	!LO:LB:g=original	!
=15	=15	=15	=15	=15	=15	=15	=15	=15	=15	=15	=15	=15	=15	=15
4.Bn\	X 7-	.	4.ff\	.	4.aa-X\	.	4.Bn\	Cae-	8r	.	8r	.	4.aa-X\	.
.	.	.	.	.	.	.	.	.	8F/L	.	8F/L	.	.	.
.	.	.	.	.	.	.	.	.	8F/	.	8F/	.	.	.
8B\	.	.	8ff\	.	8aa-\	.	8B\	-sa-	8F/J	.	8F/J	.	8aa-\	.
!LO:TX:a:t=P:problem:mixed beam	!	!	!LO:TX:a:t=P:problem:mixed beam	!	!LO:TX:a:t=P:problem:mixed beam	!	!	!	!	!	!	!	!	!
!	!	!	!	!LO:DY:t=piano	!	!	!	!	!	!	!	!	!	!
!	!	!	!	!LO:DY:a	!	!	!	!	!	!	!	!	!	!
8c\L	X n	.	8ee/L	p	8gg\L	.	4c\	-rem	4C/	.	4c/	.	8gg\L	.
!	!	!LO:DY:a	!	!	!	!LO:DY:t=piano	!	!	!	!	!	!	!	!
!	!	!LO:DY:t=pia	!	!	!	!LO:DY:a	!	!	!	!	!	!	!	!
8C/	.	p	8e/	.	8g/	p	.	.	.	.	.	.	8gg\	.
8C/	.	.	8e/	.	8g/	.	8r	.	4r	.	4r	.	8gg\	.
8C/J	.	.	8e/J	.	8g/J	.	16G\	Di-	.	.	.	.	8gg\J	.
.	.	.	.	.	.	.	16G\	-xit	.	.	.	.	.	.
=16	=16	=16	=16	=16	=16	=16	=16	=16	=16	=16	=16	=16	=16	=16
!	!	!	!	!	!	!	!	!	!	!	!LO:TX:a:t=4	!	!	!
4C/	.	.	4e/	.	4g/	.	8c\	er-	00r	.	00r	.	4gg\	.
.	.	.	.	.	.	.	8c\	-go	.	.	.	.	.	.
4r	.	.	4r	.	4r	.	8c\	e-	.	.	.	.	4r	.
.	.	.	.	.	.	.	16G\	-is	.	.	.	.	.	.
.	.	.	.	.	.	.	16F\	Pi-	.	.	.	.	.	.
8r	.	.	8r	.	8r	.	8E\	-la-	.	.	.	.	8r	.
8C/L	.	.	8e/L	.	8g/L	.	8C/	-tus	.	.	.	.	8gg\L	.
8C/	.	.	8e/	.	8g/	.	8r	.	.	.	.	.	8gg\	.
8C/J	.	.	8e/J	.	8g/J	.	8C/	quid	.	.	.	.	8gg\J	.
=17	=17	=17	=17	=17	=17	=17	=17	=17	=17	=17	=17	=17	=17	=17
8C/L	.	.	8e/L	.	8g/L	.	4E\	er-	.	.	.	.	8gg\L	.
8C/	.	.	8e/	.	8g/	.	.	.	.	.	.	.	8gg\	.
8C/	.	.	8e/	.	8g/	.	4G\	-go	.	.	.	.	8gg\	.
8C/J	.	.	8e/J	.	8g/J	.	.	.	.	.	.	.	8gg\J	.
!	!	!	!LO:LB:g=original	!	!LO:LB:g=original	!	!	!	!	!	!	!	!	!
8G\L	X 3:	.	8g/L	.	8g/L	.	4B-\	mul-	.	.	.	.	8gg\L	.
8F\	.	.	8f/	.	8g/	.	.	.	.	.	.	.	8gg\	.
8E\	.	.	8e/	.	8g/	.	4B-\	-tiſ	.	.	.	.	8gg\	.
8D\J	.	.	8d/J	.	8f/J	.	.	.	.	.	.	.	8ff\J	.
=18	=18	=18	=18	=18	=18	=18	=18	=18	=18	=18	=18	=18	=18	=18
8C#X/L	X 5	.	8G/L	.	8e/L	.	4.B-\	fa-	.	.	.	.	8ee\L	.
8C#/	X 7	.	8G/	.	8e/	.	.	.	.	.	.	.	8ee\	.
8C#/	.	.	8A/	.	8e/	.	.	.	.	.	.	.	8ee\	.
8C#/J	X 6	.	8A/J	.	8e/J	.	16A\	-ci-	.	.	.	.	8ee\J	.
.	.	.	.	.	.	.	16G\	-am	.	.	.	.	.	.
!LO:LB:g=original	!	!	!	!	!	!	!	!	!	!	!	!	!	!
8D\L	.	.	8A/L	.	8f/L	.	8F\	vo-	.	.	.	.	8ff\L	.
!	!	!	!	!	!	!LO:DY:t=For&colon;	!	!	!	!	!	!	!	!
!	!	!	!	!	!	!LO:DY:a	!	!	!	!	!	!	!	!
8d\	.	.	8f/J	.	8a/	f	8D\	-bis	.	.	.	.	8aa\	.
8c#X\	.	.	8e/L	.	8a/	.	8r	.	.	.	.	.	8aa\	.
8A\J	X #	.	8c#X/J	.	8a/J	.	8A\	at	.	.	.	.	8aa\J	.
!	!	!	!	!	!	!	!LO:LB:g=original	!	!	!	!	!	!	!
=19	=19	=19	=19	=19	=19	=19	=19	=19	=19	=19	=19	=19	=19	=19
8D\L	9 8	.	8f/	.	8a/	.	8D\L	il-	.	.	.	.	8a/	.
8E\	.	.	4ff\	.	4aa\	.	8E\J	.	.	.	.	.	4aa\	.
8F\	.	.	.	.	.	.	8F\	li	.	.	.	.	.	.
8G\J	.	.	16ee\LL	.	16gg\LL	.	8G\	di-	.	.	.	.	16gg\LL	.
.	.	.	16dd\JJ	.	16ff\JJ	.	.	.	.	.	.	.	16ff\JJ	.
.	.	.	.	.	16qqff/	.	.	.	.	.	.	.	16qqff/	.
8A\L	X #	.	8cc#X\L	.	8ee\L	.	8A\	-xe-	.	.	.	.	8ee\L	.
8A\J	.	.	8cc#\J	.	8ee\J	.	8A\	-runt	.	.	.	.	8ee\J	.
4r	.	.	4r	.	4r	.	4r	.	.	.	.	.	4r	.
=20	=20	=20	=20	=20	=20	=20	=20	=20	=20	=20	=20	=20	=20	=20
4d\	.	.	4a/	.	4ff\	.	4d\	tol-	4f\	.	4a\	.	4ff\	.
4d\	.	.	4a/	.	4ff\	.	4d\	-le	4f\	.	4a\	.	4ff\	.
2r;	.	.	2r;	.	2r;	.	2r;	.	2r;	.	2r;	.	2r;	.
=21	=21	=21	=21	=21	=21	=21	=21	=21	=21	=21	=21	=21	=21	=21
4B-\	.	.	4dd\	.	4ff\	.	4B-\	tol-	4f\	.	4b-\	.	4ff\	.
4B-\	.	.	4dd\	.	4ff\	.	4B-\	-le	4f\	.	4b-\	.	4ff\	.
2r;	.	.	2r;	.	2r;	.	2r;	.	2r;	.	2r;	.	2r;	.
!	!	!	!	!	!	!	!	!	!	!	!	!	!LO:LB:g=original	!
=22	=22	=22	=22	=22	=22	=22	=22	=22	=22	=22	=22	=22	=22	=22
8G#X\L	X 7-	.	8dd\L	.	8ff\L	.	8G#X\	cru-	2r	.	2r	.	8ff\L	.
8G#\	.	.	8dd\	.	8ff\	.	8G#\	-ci-	.	.	.	.	8ff\	.
8G#\	.	.	8dd\	.	8ff\	.	8G#\	-fi-	.	.	.	.	8ff\	.
8G#\J	.	.	8dd\J	.	8ff\J	.	8G#\	-ge	.	.	.	.	8ff\J	.
.	.	.	8qqdd/	.	8qqff/	.	.	.	.	.	.	.	.	.
4A\	X #	.	2cc#X\	.	2eet\	.	2A\	e-	8r	.	8r	.	2ee\	.
.	.	.	.	.	.	.	.	.	16A/LL	.	16A/LL	.	.	.
.	.	.	.	.	.	.	.	.	16A/JJ	.	16A/JJ	.	.	.
4AA/	.	.	.	.	.	.	.	.	8A/L	.	8A/L	.	.	.
.	.	.	.	.	.	.	.	.	8A/J	.	8A/J	.	.	.
!LO:LB:g=original	!	!	!LO:LB:g=original	!	!LO:LB:g=original	!	!	!	!	!	!	!	!	!
=23	=23	=23	=23	=23	=23	=23	=23	=23	=23	=23	=23	=23	=23	=23
!LO:TX:a:t=Solo	!	!	!	!	!	!	!	!	!	!	!	!	!	!
8D\L	.	.	8f/L	.	[>2dd\	.	4D\	-um	4A/	.	4A/	.	2dd\	.
8E\	.	.	8g/	.	.	.	.	.	.	.	.	.	.	.
8F\	.	.	8a/	.	.	.	4r	.	4r	.	4r	.	.	.
8D\J	.	.	8f/J	.	.	.	.	.	.	.	.	.	.	.
!LO:TX:a:t=P:problem:mixed beam	!	!	!	!	!	!	!	!	!	!	!	!	!	!
8G\L	6 3	.	4.e/	.	8dd\L]	.	2r	.	2r	.	2r	.	8dd\L	.
8E\	.	.	.	.	16cc#X\L	.	.	.	.	.	.	.	16cc#X\L	.
.	.	.	.	.	16b-\JJ	.	.	.	.	.	.	.	16b-\JJ	.
8A\	X #	.	.	.	8cc#X\L	.	.	.	.	.	.	.	8cc#X\L	.
8AA/J	.	.	8cc#X\	.	8ee\J	.	.	.	.	.	.	.	8ee\J	.
!	!	!	!	!	!	!	!	!	!LO:TX:a:t=P:problem:mixed beam	!	!	!	!	!
=24	=24	=24	=24	=24	=24	=24	=24	=24	=24	=24	=24	=24	=24	=24
!	!	!	!	!	!	!	!	!	!	!	!LO:TX:a:t=2	!	!	!
8G\L	.	.	8ee\L	.	4.ff\	.	00r	.	0r	.	0r	.	4.ff\	.
8E\	.	.	16dd\L	.	.	.	.	.	.	.	.	.	.	.
.	.	.	16cc#X\JJ	.	.	.	.	.	.	.	.	.	.	.
8F\	X 6	.	8dd\L	.	.	.	.	.	.	.	.	.	.	.
8D\J	.	.	8dd\J	.	8ff\	.	.	.	.	.	.	.	8ff\	.
8G\L	6 5	.	(>8dd\L	.	4ee\	.	.	.	.	.	.	.	4ee\	.
8E\	.	.	16cc#X\L)	.	.	.	.	.	.	.	.	.	.	.
.	.	.	16bn\JJ	.	.	.	.	.	.	.	.	.	.	.
8A\	X #	.	8cc#\L	.	[<4aa\	.	.	.	.	.	.	.	4aa\	.
8F\J	.	.	8dd\J	.	.	.	.	.	.	.	.	.	.	.
=25	=25	=25	=25	=25	=25	=25	=25	=25	=25	=25	=25	=25	=25	=25
4B-\	X 7	.	4dd\	.	16aa\LL]	.	.	.	.	.	.	.	(>16aa\LL	.
.	X 6	.	.	.	16ff\J	.	.	.	.	.	.	.	16ff\J	.
.	.	.	.	.	[>8gg\J	.	.	.	.	.	.	.	8gg\J)	.
4A\	X 7	.	4cc\	.	16gg\LL]	.	.	.	.	.	.	.	16gg\LL	.
.	X 6	.	.	.	16ee\J	.	.	.	.	.	.	.	16ee\J	.
.	.	.	.	.	[>8ff\J	.	.	.	.	.	.	.	8ff\J	.
4G\	X 7	.	8b-/	.	16ff\LL]	.	.	.	.	.	.	.	16ff\LL	.
.	.	.	.	.	16dd\	.	.	.	.	.	.	.	16dd\	.
.	4# 2	.	4a/	.	16ee\	.	.	.	.	.	.	.	16ee\	.
.	.	.	.	.	16cc#X\JJ	.	.	.	.	.	.	.	16cc#X\JJ	.
8F\L	.	.	.	.	16dd\LL	.	.	.	.	.	.	.	16dd\LL	.
.	X 6	.	.	.	16b-\	.	.	.	.	.	.	.	16b-\	.
8G\J	.	.	16f/LL	.	16a\	.	.	.	.	.	.	.	16a\	.
.	.	.	16e/JJ	.	16g\JJ	.	.	.	.	.	.	.	16g\JJ	.
=26	=26	=26	=26	=26	=26	=26	=26	=26	=26	=26	=26	=26	=26	=26
.	.	.	.	.	16qqg/	.	.	.	.	.	.	.	.	.
4A\	X 4	.	4d/	.	8f/L	.	.	.	8r	.	8r	.	8aa\L	.
.	.	.	.	.	16e/L	.	.	.	16A/LL	.	16A/LL	.	16gg\L	.
.	.	.	.	.	16d/JJ	.	.	.	16A/JJ	.	16A/JJ	.	16ff\JJ	.
!	!	!	!	!LO:DY:t=pia&colon;	!	!	!	!	!	!	!	!	!LO:TX:a:t=t	!
!	!	!	!	!LO:DY:a	!	!	!	!	!	!	!LO:LB:g=original	!	!	!
4AA/	x #	.	4c#X/	p	4et/	.	.	.	8A/L	.	8A/L	.	4ee\	.
.	.	.	.	.	.	.	.	.	8A/J	.	8A/J	.	.	.
8D\L	.	.	8d/L	.	4d/	.	.	.	4A/	.	4A/	.	4dd\	.
8E\	.	.	8g/	.	.	.	.	.	.	.	.	.	.	.
8F\	.	.	8a/	.	4r	.	.	.	4r	.	4r	.	4r	.
8D\J	.	.	8f/J	.	.	.	.	.	.	.	.	.	.	.
!LO:LB:g=original	!	!	!	!	!LO:LB:g=original	!	!	!	!	!	!	!	!	!
=27	=27	=27	=27	=27	=27	=27	=27	=27	=27	=27	=27	=27	=27	=27
!LO:TX:a:t=P:problem:mixed beam	!	!	!	!	!	!	!	!	!	!	!	!	!	!
!	!	!	!	!	!	!LO:DY:t=pian&colon;	!	!	!	!	!	!	!	!
!	!	!	!	!	!	!LO:DY:a	!	!	!LO:N:vis=0	!	!LO:N:vis=0	!	!	!
8G\L	6 5	.	8b-/L	.	[>2ee\	p	.	.	0r	.	0r	.	2ee\	.
8E\	.	.	8g/	.	.	.	.	.	.	.	.	.	.	.
8A\	X #	.	8e/	.	.	.	.	.	.	.	.	.	.	.
8AA/J	.	.	8a/J	.	.	.	.	.	.	.	.	.	.	.
!	!	!	!LO:LB:g=original	!	!	!	!	!	!	!	!	!	!	!
8D\L	X 9	.	8a/L	.	8ee\L]	.	.	.	.	.	.	.	8ee\L	.
8E\	.	.	8g/	.	16dd\L	.	.	.	.	.	.	.	16dd\L	.
.	.	.	.	.	16cc#X\JJ	.	.	.	.	.	.	.	16cc#X\JJ	.
8F\	X 6	.	8a/	.	8dd\L	.	.	.	.	.	.	.	8dd\L	.
8D\J	.	.	8a/J	.	8ff\J	.	.	.	.	.	.	.	8ff\J	.
!	!	!	!	!	!	!	!	!	!	!	!	!	!LO:LB:g=original	!
=28	=28	=28	=28	=28	=28	=28	=28	=28	=28	=28	=28	=28	=28	=28
8E\L	X 9	.	8g/L	.	4ee\	.	2r	.	.	.	.	.	4ee\	.
8F\	.	.	8a/	.	.	.	.	.	.	.	.	.	.	.
8G\	X 6	.	8b-/	.	8r	.	.	.	.	.	.	.	8r	.
8E\J	X 6	.	8cc#X/J	.	8aa\	.	.	.	.	.	.	.	8aa\	.
4F\	.	.	4dd\	.	4aa\	.	8r	.	.	.	.	.	4aa\	.
!	!	!	!	!	!	!	!LO:LB:g=original	!	!	!	!	!	!	!
.	.	.	.	.	.	.	8d\	at	.	.	.	.	.	.
4F#X\	.	.	4r	.	4r	.	8d\	il-	.	.	.	.	4r	.
.	.	.	.	.	.	.	16c\	-li	.	.	.	.	.	.
.	.	.	.	.	.	.	16d\	ma-	.	.	.	.	.	.
=29	=29	=29	=29	=29	=29	=29	=29	=29	=29	=29	=29	=29	=29	=29
4G\	.	.	1r	.	1r	.	8B-\	-gis	1r	.	1r	.	1r	.
.	.	.	.	.	.	.	8A\	cla-	.	.	.	.	.	.
8r	.	.	.	.	.	.	8G\	-ma-	.	.	.	.	.	.
!	!	!	!LO:TX:a:t=1.	!LO:TX:a:t=1.	!LO:TX:a:t=1.	!	!	!	!	!	!	!	!LO:TX:a:t=1	!
8G\	.	.	.	.	.	.	16A\	-ban	.	.	.	.	.	.
.	.	.	.	.	.	.	16B-\	di-	.	.	.	.	.	.
8c\L	.	.	.	.	.	.	8c\	-cen-	.	.	.	.	.	.
8c\J	.	.	.	.	.	.	8c\	-teſ	.	.	.	.	.	.
4r	.	.	.	.	.	.	4r	.	.	.	.	.	.	.
=30	=30	=30	=30	=30	=30	=30	=30	=30	=30	=30	=30	=30	=30	=30
4c 4C\	.	.	4ee\	.	4gg\	.	4c\	tol-	4c/	.	4g\	.	4gg\	.
4c 4C\	.	.	4ee\	.	4gg\	.	4c\	-le	4c/	.	4g\	.	4gg\	.
2r;	.	.	2r;	.	2r;	.	2r;	.	2r;	.	2r;	.	2r;	.
=31	=31	=31	=31	=31	=31	=31	=31	=31	=31	=31	=31	=31	=31	=31
4c\	.	.	4ee\	.	4gg\	.	4c\	tol-	4c/	.	4g\	.	4gg\	.
4c\	.	.	4ee\	.	4gg\	.	4c\	-le	4c/	.	4g\	.	4gg\	.
2r;	.	.	2r;	.	2r;	.	2r	.	2r;	.	2r;	.	2r;	.
!LO:LB:g=original	!	!	!	!	!	!	!	!	!	!	!	!	!	!
=32	=32	=32	=32	=32	=32	=32	=32	=32	=32	=32	=32	=32	=32	=32
8c\L	.	.	8ee\L	.	8gg\L	.	8c\	cru-	4c/	.	4g\	.	8gg\L	.
8c\	.	.	8ee\	.	8gg\	.	8c\	-ci-	.	.	.	.	8gg\	.
8A\	.	.	8cc\	.	8aa\	.	8A\	-fi-	2f\	.	4a\	.	8aa\	.
8F\J	.	.	8cc\J	.	8aa\J	.	8F\	-ge	.	.	.	.	8aa\J	.
.	.	.	.	.	.	.	.	.	.	.	8qqa/	.	.	.
4c\	.	.	2ee\	.	2gg\	.	2c\	e-	.	.	2gT\	.	2gg\	.
4C/	.	.	.	.	.	.	.	.	8.c/L	.	.	.	.	.
.	.	.	.	.	.	.	.	.	16c/Jk	.	.	.	.	.
!	!	!	!LO:LB:g=original	!	!LO:LB:g=original	!	!LO:LB:g=original	!	!	!	!	!	!	!
=33	=33	=33	=33	=33	=33	=33	=33	=33	=33	=33	=33	=33	=33	=33
!	!	!LO:DY:b	!	!	!	!	!	!	!	!	!	!	!	!
!	!	!LO:DY:t=pia	!	!	!	!	!	!	!	!	!	!	!	!
4F\	.	p	4cc\	.	4ff\	.	4F\	-um	4A/	.	4f\	.	4ff\	.
!	!	!	!	!	!	!LO:DY:t=pian&colon;	!	!	!	!	!	!	!	!
!	!	!	!	!	!	!LO:DY:a	!	!	!	!	!	!	!	!
4F\	.	.	4r	.	4r	p	4A-X\	et	4r	.	4r	.	4r	.
!	!	!	!	!LO:DY:t=pia	!	!	!	!	!	!	!	!	!	!
!	!	!	!	!LO:DY:a	!	!	!	!	!	!	!	!	!	!
.	.	.	.	p	.	.	.	.	.	.	.	.	.	.
8F\L	.	.	8f/L	.	8f/L	.	8r	.	2r	.	2r	.	8ff\L	.
!	!	!	!	!	!	!	!	!	!	!	!	!	!	!LO:DY:a
!	!	!	!	!	!	!	!	!	!	!	!	!	!	!LO:DY:t=pia
8F\	.	.	8f/	.	8f/	.	8A-X\	cru-	.	.	.	.	8ff\	p
8F\	4 2	.	8f/	.	8f/	.	8G\	-ci-	.	.	.	.	8ff\	.
8F\J	X -	.	8f/J	.	8f/J	.	8A-\	-fi-	.	.	.	.	8ff\J	.
!	!	!	!	!	!	!	!	!	!	!	!LO:LB:g=original	!	!	!
=34	=34	=34	=34	=34	=34	=34	=34	=34	=34	=34	=34	=34	=34	=34
!	!	!	!	!	!	!	!	!	!LO:TX:a:t=6	!	!LO:TX:a:t=6	!	!	!
8F\L	6- 4	.	8f/L	.	8f/L	.	4B-\	-xe-	00r	.	00r	.	8ff\L	.
8F\	x :	.	8f/	.	8f/	.	.	.	.	.	.	.	8ff\	.
8F\	.	.	8f/	.	8f/	.	4B-\	-runt	.	.	.	.	8ff\	.
8F\J	.	.	8f/J	.	8f/J	.	.	.	.	.	.	.	8ff\J	.
8F\L	.	.	8f/L	.	8f/L	.	8B-\L	e-	.	.	.	.	8ff\L	.
8F\	.	.	8f/	.	8f/	.	8A-X\J	.	.	.	.	.	8ff\	.
8F\	X -	.	8f/	.	8f/	.	4A-\	-um	.	.	.	.	8ff\	.
8F\J	.	.	8f/J	.	8f/J	.	.	.	.	.	.	.	8ff\J	.
=35	=35	=35	=35	=35	=35	=35	=35	=35	=35	=35	=35	=35	=35	=35
8F\L	.	.	8f/L	.	8f/L	.	4A-X\	&	.	.	.	.	8ff\L	.
8F\	.	.	8f/	.	8f/	.	.	.	.	.	.	.	8ff\	.
8A-X\	.	.	8a-X/	.	8a-X/	.	4A-\	cum	.	.	.	.	8aa-X\	.
8F\J	.	.	8f/J	.	8f/J	.	.	.	.	.	.	.	8ff\J	.
8c\L	5 4	.	8cc/L	.	8cc\L	.	8A-\L	e-	.	.	.	.	8ccc\L	.
8G\	X n	.	8g/	.	8g\	.	8G\J	.	.	.	.	.	8gg\	.
8En\	X :	.	8en/	.	8en\	.	4G\	-o	.	.	.	.	8een\	.
8C\J	.	.	8c/J	.	8c\J	.	.	.	.	.	.	.	8cc\J	.
!LO:LB:g=original	!	!	!	!	!	!	!	!	!	!	!	!	!LO:LB:g=original	!
=36	=36	=36	=36	=36	=36	=36	=36	=36	=36	=36	=36	=36	=36	=36
4F\	X -	.	4f/	.	4f/	.	4A\	a-	.	.	.	.	4ff\	.
8r	.	.	8r	.	8r	.	8F\	-li-	.	.	.	.	8r	.
8F#X\	X 7-	.	8f#X/	.	8f#X/	.	8E-X\	-os	.	.	.	.	8ff#X\	.
8G\L	X n	.	8g/L	.	8g/L	.	4D/	du-	.	.	.	.	8gg\L	.
8D\	.	.	8d/J	.	8d/J	.	.	.	.	.	.	.	8dd\J	.
8BBn\	X 5	.	8Bn/L	.	8Bn/L	.	4D/	-oſ	.	.	.	.	8bn\L	.
8GG\J	.	.	8G/J	.	8G/J	.	.	.	.	.	.	.	8gg\J	.
!	!	!	!	!	!	!	!LO:LB:g=original	!	!	!	!	!	!	!
=37	=37	=37	=37	=37	=37	=37	=37	=37	=37	=37	=37	=37	=37	=37
8C\L	X 3-	.	8c/L	.	8c/L	.	4c\	hinc	.	.	.	.	8cc\L	.
8D\	.	.	8d/	.	8d/	.	.	.	.	.	.	.	8dd\	.
8E-X\	.	.	8e-X/	.	8e-X/	.	8r	.	.	.	.	.	8ee-X\	.
8F\J	.	.	8f/J	.	8f/J	.	8c\	et	.	.	.	.	8ff\J	.
4G\	.	.	4g/	.	4g/	.	4Bn\	hinc	.	.	.	.	4gg\	.
8r	.	.	8r	.	8r	.	8r	.	.	.	.	.	8r	.
8G\	.	.	8g/	.	8g/	.	8B\	in	.	.	.	.	8gg\	.
!	!	!	!LO:LB:g=original	!	!LO:LB:g=original	!	!	!	!	!	!	!	!	!
=38	=38	=38	=38	=38	=38	=38	=38	=38	=38	=38	=38	=38	=38	=38
4G\	X n	.	4g/	.	4g/	.	4Bn\	me-	0r	.	0r	.	4gg\	.
4F\	7- 5	.	4f/	.	4f/	.	8c\	-di-	.	.	.	.	4ff\	.
.	8 6	.	.	.	.	.	8d\	-o	.	.	.	.	.	.
4E-X\	X 6	.	4e-X/	.	4e-X/	.	4e-X\	au-	.	.	.	.	4ee-X\	.
4F\	6 5	.	4f/	.	4f/	.	4c\	-tem	.	.	.	.	4ff\	.
=39	=39	=39	=39	=39	=39	=39	=39	=39	=39	=39	=39	=39	=39	=39
4G\	X n	.	4g/	.	4g/	.	2Bn\	Je-	.	.	.	.	4gg\	.
4GG/	.	.	4G/	.	4G/	.	.	.	.	.	.	.	4g/	.
4C/	.	.	4c/	.	4c/	.	4c\	-sum	.	.	.	.	4cc\	.
4C/	X n	.	4en/	.	4g/	.	4r	.	.	.	.	.	4gg\	.
!	!	!	!	!LO:DY:t=For&colon;	!	!LO:DY:t=For&colon;	!	!	!	!	!	!	!	!
!	!	!	!	!LO:DY:a	!	!LO:DY:a	!	!	!	!	!	!	!	!
.	.	.	.	f	.	f	.	.	.	.	.	.	.	.
!LO:LB:g=original	!	!	!	!	!	!	!	!	!	!	!	!	!	!
=40	=40	=40	=40	=40	=40	=40	=40	=40	=40	=40	=40	=40	=40	=40
!	!	!	!	!	!	!	!	!	!	!LO:DY:b	!	!LO:DY:b	!	!LO:DY:a
!	!	!	!	!	!	!	!	!	!	!	!	!LO:DY:t=p&colon;	!	!LO:DY:t=for
!	!	!	!	!	!	!	!	!	!	!LO:DY:t=p&colon;	!	!	!	!
4CC/	.	.	8e/L	.	(<8g/L	.	1r	.	4c/	p	4c/	p	8gg\L	f
.	.	.	(<8f/	.	8a-X/J)	.	.	.	.	.	.	.	8aa-X\J	.
4r	.	.	(<8f/)	.	(<8a-/L	.	.	.	8r	.	8r	.	8aa-\L	.
.	.	.	8e/J)	.	8g/J)	.	.	.	8c/	.	8c/	.	8gg\J	.
.	.	.	(<16qqf/LL	.	.	.	.	.	.	.	.	.	.	.
.	.	.	16qqg/JJ)	.	.	.	.	.	.	.	.	.	.	.
4CC/	.	.	8a-X/L	.	8cc/L	.	.	.	4c/	.	4c/	.	8ccc\L	.
.	.	.	16g/L	.	16b-/L	.	.	.	.	.	.	.	16bb-\L	.
.	.	.	16f/JJ	.	16a-/JJ	.	.	.	.	.	.	.	16aa-\JJ	.
4r	.	.	8e/L	.	8g/L	.	.	.	8r	.	8r	.	8gg\L	.
.	.	.	8e/J	.	8g/J	.	.	.	8c/	.	8c/	.	8gg\J	.
!	!	!	!	!	!	!	!	!	!LO:LB:g=original	!	!	!	!	!
=41	=41	=41	=41	=41	=41	=41	=41	=41	=41	=41	=41	=41	=41	=41
4CC/	.	.	(<8e/L	.	(<8g/L	.	2r	.	2c/	.	[<2c/	.	8gg\L	.
.	.	.	8f/J)	.	8a-X/J)	.	.	.	.	.	.	.	8aa-X\	.
4r	.	.	(<8f/L	.	(<8a-/L	.	.	.	.	.	.	.	8aa-\	.
.	.	.	8e/J)	.	8g/J)	.	.	.	.	.	.	.	8gg\J	.
4CC/	.	.	8a-X/L	.	8cc/L	.	4r	.	(<4c/	.	4c/]	.	8ccc\L	.
.	.	.	16g/L	.	16b-\L	.	.	.	.	.	.	.	16bb-\L	.
.	.	.	16f/JJ	.	16a-X\JJ	.	.	.	.	.	.	.	16aa-\JJ	.
!	!	!	!	!	!LO:TX:a:t=P:problem:mixed beam	!	!	!	!	!	!	!	!LO:LB:g=original	!
8r	.	.	4en/	.	8g/L	.	8r	.	4r)	.	4r	.	8gg\L	.
8c\	.	.	.	.	8cc\J	.	8c\	Et	.	.	.	.	8ccc\J	.
!	!	!	!	!	!LO:LB:g=original	!	!	!	!	!	!	!	!	!
=42	=42	=42	=42	=42	=42	=42	=42	=42	=42	=42	=42	=42	=42	=42
8F\L	X -	.	8cc\L	.	8ff\	.	8A-X\	quid	1r	.	1r	.	8ff\	.
8F\	.	.	8cc\	.	4ff\	.	8F\	am	.	.	.	.	4ff\	.
*	*reverse	*	*	*	*	*	*	*	*	*	*	*	*	*
!	!	!	!	!	!	!	!LO:LB:g=original	!	!	!	!	!	!	!
8G\	X 7n	.	8b-\	.	.	.	8G\	cir-	.	.	.	.	.	.
*	*Xreverse	*	*	*	*	*	*	*	*	*	*	*	*	*
!	!	!	!	!	!	!	!	!	!LO:TX:a:t=1.	!	!LO:TX:a:t=1.	!	!	!
8G\J	X 6	.	8a\J	.	8een\	.	8G\	-cum	.	.	.	.	8een\	.
4A-X\	.	.	8cc/L	.	4ff\	.	4A-X\	stan-	.	.	.	.	4ff\	.
.	.	.	8cc/	.	.	.	.	.	.	.	.	.	.	.
8A-\L	.	.	8a-X/	.	8cc\L	.	8A-\	-tes	.	.	.	.	8cc\L	.
8B-\J	.	.	8g/J	.	8b-\J	.	8B-\	di-	.	.	.	.	8b-\J	.
!	!	!	!LO:LB:g=original	!	!	!	!	!	!	!	!	!	!	!
=43	=43	=43	=43	=43	=43	=43	=43	=43	=43	=43	=43	=43	=43	=43
4c\	6 4-	.	4f/	.	4a-X/	.	4c\	-xe-	2r	.	2r	.	4aa-X\	.
.	.X n	.	.	.	.	.	.	.	.	.	.	.	.	.
4C/	.	.	4en/	.	4g/	.	4C/	-runt	.	.	.	.	4gg\	.
4D-X\	X 6|	.	4Bn/	.	4f/	.	4D-X\	vach	4F/	.	4F/	.	4ff\	.
4r;	.	.	4r;	.	4r;	.	4r;	.	4r;	.	4r;	.	4r;	.
!LO:LB:g=original	!	!	!	!	!	!	!	!	!	!	!	!	!	!
=44	=44	=44	=44	=44	=44	=44	=44	=44	=44	=44	=44	=44	=44	=44
4BBn/	X 7-	.	4f/	.	4ddn\	.	4BBn/	vach	4F/	.	4F/	.	4ddn\	.
4r;	.	.	4r;	.	4r;	.	4r;	.	4r	.	4r;	.	4r;	.
8r	.	.	8r	.	8r	.	8r	.	4c/	.	4c/	.	8r	.
8C/L	.	.	8en/	.	8g/	.	8ryy	.	.	.	.	.	8gg\	.
.	X n	.	.	.	.	.	.	.	.	.	.	.	.	.
8C/	.	.	8e/L	.	8g/L	.	8C/	qui	8r	.	8r	.	8gg\L	.
8C/J	.	.	16d/L	.	16f/L	.	16C/	de-	16f\LL	.	16f\LL	.	16ff\L	.
.	.	.	16e/JJ	.	16g/JJ	.	16C/	-struis	16g\JJ	.	16g\JJ	.	16gg\JJ	.
=45	=45	=45	=45	=45	=45	=45	=45	=45	=45	=45	=45	=45	=45	=45
8F\L	.	.	8f/L	.	8a\L	.	8F\	tem-	8f\L	.	8a\L	.	8a\L	.
8F\	X 6	.	8a/J	.	8cc\J	.	8F\	-plu(m)	16f\L	.	16f\L	.	8cc\J	.
.	.	.	.	.	.	.	.	.	16f\JJ	.	16f\JJ	.	.	.
8A\	6 5	.	4ccT\	.	4ee-X\	.	4A\	De-	8f\L	.	8f\L	.	4ee-X\	.
8F\J	.	.	.	.	.	.	.	.	8f\J	.	8f\J	.	.	.
!	!	!	!	!	!LO:LB:g=original	!	!	!	!	!	!LO:LB:g=original	!	!	!
4B-\	.	.	4f/	.	4dd\	.	4B-\	-i	4f\	.	4f\	.	4dd\	.
8G\L	.	.	4dd\	.	4ddd\	.	8B-\	et	8r	.	8r	.	4bb-\	.
8G\J	.	.	.	.	.	.	8G\	in	8g\	.	8g\	.	.	.
!	!	!	!	!	!	!	!LO:LB:g=original	!	!	!	!	!	!	!
=46	=46	=46	=46	=46	=46	=46	=46	=46	=46	=46	=46	=46	=46	=46
.	.	.	.	.	8qqff/	.	.	.	.	.	.	.	.	.
8.c\L	.	.	8.g/L	.	8.een\L	.	8.c\	tri-	8.c/L	.	8.g\L	.	8een\L	.
.	.	.	.	.	.	.	.	.	.	.	.	.	8ee\J	.
16c\Jk	.	.	16g/Jk	.	16ee\Jk	.	16c\	-du-	16c/Jk	.	16g\Jk	.	.	.
4c 4F\	.	.	4g/	.	4ee\	.	4c\	-o	4c/	.	4g\	.	4ee\	.
!LO:LB:g=original	!	!	!	!	!	!	!	!	!	!	!	!	!	!
4F\	.	.	4a/	.	4ff\	.	4A\	pra-	4f\	.	4a\	.	4ff\	.
4F\	.	.	4a/	.	4cc\	.	4A\	-e-	4a\	.	4cc\	.	4cc\	.
!	!	!	!LO:LB:g=original	!	!	!	!	!	!LO:LB:g=original	!	!	!	!LO:LB:g=original	!
=47	=47	=47	=47	=47	=47	=47	=47	=47	=47	=47	=47	=47	=47	=47
4BB-/	4 2	.	4g/	.	4ee\	.	4G\	-di-	8r	.	8r	.	4ee\	.
.	.	.	.	.	.	.	.	.	8c\L	.	8g\L	.	.	.
8AA/L	.	.	8cc\L	.	8ff\L	.	8F\	-fi-	8f\	.	8a\	.	8ff\L	.
8BB-/J	.	.	8dd\J	.	8gg\J	.	8D\	-cas	8g\J	.	8b-\J	.	8gg\J	.
!	!	!	!	!	!LO:TX:t=P:problem:w źródle "tr" zapisane nad kreską taktową	!	!	!	!	!	!	!	!LO:TX:a:t=t	!
4C/	.	.	2eet\	.	2ggT\	.	2C/	e-	4f\	.	8.a\L	.	2gg\	.
.	.	.	.	.	.	.	.	.	.	.	16g\Jk	.	.	.
4CC/	.	.	.	.	.	.	.	.	4c/	.	4gT\	.	.	.
=48	=48	=48	=48	=48	=48	=48	=48	=48	=48	=48	=48	=48	=48	=48
!	!	!	!LO:TX:a:t=P:problem:mixed beam	!	!	!	!	!	!LO:TX:a:t=P:problem:mixed beam	!	!	!	!	!
4FF/	.	.	16ff\LL|	.	16ff\LL	.	4F\	-um	16A/LL	.	16f\LL	.	16ff\LL	.
.	.	.	(>16a/	.	16cc\	.	.	.	16f\	.	16a\	.	16cc\	.
.	.	.	16g/	.	16b-\	.	.	.	16g\	.	16cc\	.	16b-\	.
.	.	.	16f/JJ)	.	16a\JJ	.	.	.	16a\JJ	.	16dd\JJ	.	16a\JJ	.
.	.	.	8qqc/	.	8qqa/	.	.	.	16qqa/	.	16qqcc/	.	.	.
8BB-/L	.	.	8B-/L	.	8g/L	.	2r	.	8g\L	.	8b-\L	.	8gg\L	.
8C/J	.	.	16A/L	.	16f/L	.	.	.	16f\L	.	16a\L	.	16ff\L	.
.	.	.	16G/JJ	.	16e/JJ	.	.	.	16c\JJ	.	16g\JJ	.	16ee\JJ	.
!	!	!	!	!	!LO:LB:g=original	!	!	!	!LO:TX:a:t=P:problem:mixed beam	!	!LO:TX:a:t=P:problem:mixed beam	!	!	!
(<8FF'/L	.	.	(<8A/L	.	8f/L	.	.	.	8f\L	.	8a\L	.	8ff\L	.
8FF'/	.	.	8A'/	.	8c/	.	.	.	16A/L	.	16c/L	.	8ccc\	.
!	!	!	!	!	!	!	!	!	!	!	!	!LO:DY:b	!	!
!	!	!	!	!	!	!	!	!	!	!	!	!LO:DY:t=piano	!	!
.	.	.	.	.	.	.	.	.	16A/JJ	.	16c/JJ	p	.	.
!	!	!	!	!	!	!	!	!	!	!LO:DY:b	!	!	!	!
!	!	!	!	!	!	!	!	!	!	!LO:DY:t=pia&colon;	!	!	!	!
8FF'/	.	.	8A'/	.	8c/	.	4r	.	8A/L	p	8c/L	.	8ccc\	.
8FF'/J)	.	.	8A'/J)	.	8c/J	.	.	.	8A/J	.	8c/J	.	8ccc\J	.
!LO:LB:g=original	!	!	!	!	!	!	!LO:LB:g=original	!	!	!	!LO:TX:a:t=P:problem:mixed beam	!	!	!
=49	=49	=49	=49	=49	=49	=49	=49	=49	=49	=49	=49	=49	=49	=49
1FF;>	.	.	1A;	.	1c;	.	1r;<	.	1F;	.	1A;	.	1ccc;	.
!	!	!	!	!	!	!	!	!	!	!	!LO:TX:b:t=Sequit Pars 3tia	!	!	!
==;;	==;;	==	==	==	==	==	==;;	==;;	==	==	==;;	==;;	==	==
*-	*-	*-	*-	*-	*-	*-	*-	*-	*-	*-	*-	*-	*-	*-
!!!system-decoration: s1[(s2,s3)]s4[(s5,s6)]s7
!!!RDF**kern: > = above
!!!RDF**kern: < = below
!!!EED: Antoni Szymański
!!!EST: 2020-10-09
!!!ENC: Andrzej Borzym
!!!END: 2020-05-01
!!!RDF**kern: | = vertical stroke
